**kern	**kern	**dynam
*clefF4	*clefG2
*k[f#c#]	*k[f#c#]
*M3/4	*M3/4
=	=	=41
*ped	*	*
.	(>(<16ff#qLL>	.
.	16gg#qJJ	.
4BB	8ff#L)	p
.	8ee#J	.
4F# 4B 4d	4ff#	.
4F# 4B 4d	4dd	.
*Xped	*	*
=	=	=42
*ped	*	*
4FF#	4cc#	.
4F# 4A 4c#	2a)	.
4F# 4A 4c#	.	.
*Xped	*	*
=	=	=43
*ped	*	*
.	(>(<16ff#qLL>	.
.	16gg#qJJ	.
4D	8ff#L)	.
.	8ee#J	.
4F# 4A 4d	4ff#	.
4F# 4A 4d	4dd	.
*Xped	*	*
=	=	=44
*ped	*	*
4AA	4cc#	.
4E 4A 4c#	2a)	.
4E 4A 4c#	.	.
*Xped	*	*
=	=	=45
*ped	*	*
.	(>(<16ff#qLL>	.
.	16gg#qJJ	.
4BB	8ff#L)	.
.	8ee#J	.
4F# 4B 4d	4ff#	.
4F# 4B 4d	4dd	.
*Xped	*	*
=	=	=46
*ped	*	*
4E	4cc#	.
4A 4c# 4e	2a)	.
4A 4c# 4e	.	.
*Xped	*	*
=	=	=47
*ped	*	*
.	(8g#q/	.
.	(>(<16ff#qLL>)	.
.	16gg#qJJ	.
4EE	8ff#L)	.
.	8ee#J	.
4E 4G# 4d	4ff#	.
4E 4G# 4d	4dd	.
*Xped	*	*
=	=	=48
*-	*-	*-
